public/avatar/shoe/128.svg

<svg xmlns:xlink="http://www.w3.org/1999/xlink" height="38.3" width="36.05" xmlns="http://www.w3.org/2000/svg"><use height="16.85" transform="translate(9.25 11.7)" width="22.65" xlink:href="#a"/><defs><g id="a" fill-rule="evenodd"><path d="m-.05-1.5 2.8-.15q1.55-.15 3 1.1Q7.6.95 7.45 3.5 8.8 7.8 7.4 9.85q-4.95 3.7-12.5 3.85-6.75.15-8.6-1.9-1.75-2 .15-5.4 1.35-2.45 3.65-4.3l3.1-3.05 1.15-1.25q1.35-1.1 3.15-.9 1 .1 2.45 1.6" fill="#1b181e" transform="translate(14.55 3.15)"/><path d="M2.75-.7Q4.15-.7 5.2.35q1.2 1.4 1.25 2.45v.85l.1.15.65 2.7q.05 1.05-.6 2.05l-.2.3v.35q.05.9-5 2.35-5.4 1.6-9.05 1.1-3.4-.45-4.75-1.2l-.65-.75q-.5-2.2.3-3.7 1.3-2.65 2.9-3.75L-6-.3l1.2-1.3q1.3-1.05 2.4-.5Q.85-.45 1.25-.55l1.5-.15" fill="#ff9500" transform="translate(14.55 3.15)"/><path d="M4.65 9.1q2.1-3.35 1.55-5.3l.5 1.25q.5 1.85-.4 3.15-1.5 2-1.65.9" fill="gold" transform="translate(14.55 3.15)"/><path d="m1.05-.15 1.75.2q3 .3 2.1 1.65-.85 1.15-4.3-.4l-2.1-3 1.6.6.95.95m5.6 8.95-.1.55Q2.2 12.6-4.1 13l-6.55-.65-2.55-.85.15-.6 1.4.85q2.4.85 7.4.7Q3.8 12.2 6.65 8.8" fill="#1b181e" transform="translate(14.55 3.15)"/><path d="M3.1-.6 5.2.6q.4.8-2.4-.55H.85L.5-.7l2.6.1" fill="gold" transform="translate(14.55 3.15)"/><path d="M3.85 3.5q-1.35.25-2 2-.8 2.6-2.1 4.15l4.2-.6.5.35q-.15.45-2.9 1.25-3.95 1.1-7.45.8-4.2-.45.4-.75 2.9-.25 4.55-2.75L.85 4.1Q1.8 2.5 4.6 2.9q.6.15 1.1-.35.45-.45.35-1 .35 1.25 0 1.5-.8.6-2.2.45" fill="#ff6d00" transform="translate(14.55 3.15)"/><path d="m4.4 2.85-2.45.95Q1.5 4.1.4 6.85q-1.1 2.55-3 3.55-5 2.55-10.05-.15l.05-1q3.05 1.8 8.85.1.95-.3 2.45-2.9Q.15 3.7.8 3.35l3.6-.5" fill="#1b181e" transform="translate(14.55 3.15)"/><path d="M4.4 2.85 3.05 2.7q-1.5 0-2.3.8-.6.7-1.95 3.75-1.6 2.8-3.9 3.15l-5.35-.3-1.85-.75 6.1.15q1.2-.7 3.55-3.6 2.2-2.8 3.2-3.1 2.1-.6 3.85.05" fill="#ff002d" transform="translate(14.55 3.15)"/><path d="M-2.6-1.8q.65 0 2 2.9.75 1 1.95 1.1l-1.2.35q-1.85.8-3.25 3.05-2.9 4.75-8 3.35-2.4-.65.95-4.6L-6.2.55l.8-1.15q1.1-1.2 2.8-1.2" fill="gold" transform="translate(14.55 3.15)"/><path d="M-2.9 4.1q.55.45-.25.65-1.2.3-3.3 0-1.8-.3-2.1-.65-.7-.75.4-.9 1.15.6 5.25.9m-1.85 2.1q.5.3-.25.6l-2.85-.25-2.65-.65q-.75-.6.55-.6 1.1.6 5.2.9" fill="#ff9500" transform="translate(14.55 3.15)"/><path d="M-8.4 3.75q-.8-.8.4-.9 1.15.6 5.2.9.55.45-.15.6-1.25.3-3.3 0l-2.15-.6m3.8 2.1q.5.3-.2.6l-2.9-.25-2.65-.7q-.85-.6.5-.6l5.25.95" fill="#fff" transform="translate(14.55 3.15)"/><path d="M-10.95 11.8q-.55-.3-.3-.8.2-.2 2.7.5L0 10.95q1.3.9-4.25 1.5-4.55.45-6.7-.65" fill="gold" transform="translate(14.55 3.15)"/><path d="M-2.7-1.65q2.25.55 2.25 2.9Q-2.2-1.1-3.1-.85q-2.6 2.1-2.8 1.2l.85-1.15q1.1-1.15 2.35-.85M-12.2 8.4q-.45-.3 0-.6.4-.4 1.7-.35 1.3.15 1.95.95.6.85-.75.9l-2.9-.9" fill="#fff" transform="translate(14.55 3.15)"/></g></defs></svg>

<?xml version="1.0" encoding="UTF-8" standalone="no"?>
<svg xmlns:xlink="http://www.w3.org/1999/xlink" height="38.3px" width="36.05px" xmlns="http://www.w3.org/2000/svg">
  <g transform="matrix(1.0, 0.0, 0.0, 1.0, 23.8, 14.85)">
    <use height="16.85" transform="matrix(1.0, 0.0, 0.0, 1.0, -14.55, -3.15)" width="22.65" xlink:href="#shape0"/>
  </g>
  <defs>
    <g id="shape0" transform="matrix(1.0, 0.0, 0.0, 1.0, 14.55, 3.15)">
      <path d="M-0.05 -1.5 L2.75 -1.65 Q4.3 -1.8 5.75 -0.55 7.6 0.95 7.45 3.5 8.8 7.8 7.4 9.85 2.45 13.55 -5.1 13.7 -11.85 13.85 -13.7 11.8 -15.45 9.8 -13.55 6.4 -12.2 3.95 -9.9 2.1 L-6.8 -0.95 -5.65 -2.2 Q-4.3 -3.3 -2.5 -3.1 -1.5 -3.0 -0.05 -1.5" fill="#1b181e" fill-rule="evenodd" stroke="none"/>
      <path d="M2.75 -0.7 Q4.15 -0.7 5.2 0.35 6.4 1.75 6.45 2.8 L6.45 3.65 6.55 3.8 7.2 6.5 Q7.25 7.55 6.6 8.55 L6.4 8.85 6.4 9.2 Q6.45 10.1 1.4 11.55 -4.0 13.15 -7.65 12.65 -11.05 12.2 -12.4 11.45 L-13.05 10.7 Q-13.55 8.5 -12.75 7.0 -11.45 4.35 -9.85 3.25 L-6.0 -0.3 -4.8 -1.6 Q-3.5 -2.65 -2.4 -2.1 0.85 -0.45 1.25 -0.55 L2.75 -0.7" fill="#ff9500" fill-rule="evenodd" stroke="none"/>
      <path d="M4.65 9.1 Q6.75 5.75 6.2 3.8 L6.7 5.05 Q7.2 6.9 6.3 8.2 4.8 10.2 4.65 9.1" fill="#ffd700" fill-rule="evenodd" stroke="none"/>
      <path d="M1.05 -0.15 L2.8 0.05 Q5.8 0.35 4.9 1.7 4.05 2.85 0.6 1.3 L-1.5 -1.7 0.1 -1.1 1.05 -0.15" fill="#1b181e" fill-rule="evenodd" stroke="none"/>
      <path d="M6.65 8.8 L6.55 9.35 Q2.2 12.6 -4.1 13.0 L-10.65 12.35 -13.2 11.5 -13.05 10.9 -11.65 11.75 Q-9.25 12.6 -4.25 12.45 3.8 12.2 6.65 8.8" fill="#1b181e" fill-rule="evenodd" stroke="none"/>
      <path d="M3.1 -0.6 L5.2 0.6 Q5.6 1.4 2.8 0.05 L0.85 0.05 0.5 -0.7 3.1 -0.6" fill="#ffd700" fill-rule="evenodd" stroke="none"/>
      <path d="M3.85 3.5 Q2.5 3.75 1.85 5.5 1.05 8.1 -0.25 9.65 L3.95 9.05 4.45 9.4 Q4.3 9.85 1.55 10.65 -2.4 11.75 -5.9 11.45 -10.1 11.0 -5.5 10.7 -2.6 10.45 -0.95 7.95 L0.85 4.1 Q1.8 2.5 4.6 2.9 5.2 3.05 5.7 2.55 6.15 2.1 6.05 1.55 6.4 2.8 6.05 3.05 5.25 3.65 3.85 3.5" fill="#ff6d00" fill-rule="evenodd" stroke="none"/>
      <path d="M4.4 2.85 L1.95 3.8 Q1.5 4.1 0.4 6.85 -0.7 9.4 -2.6 10.4 -7.6 12.95 -12.65 10.25 L-12.6 9.25 Q-9.55 11.05 -3.75 9.35 -2.8 9.05 -1.3 6.45 0.15 3.7 0.8 3.35 L4.4 2.85" fill="#1b181e" fill-rule="evenodd" stroke="none"/>
      <path d="M4.4 2.85 L3.05 2.7 Q1.55 2.7 0.75 3.5 0.15 4.2 -1.2 7.25 -2.8 10.05 -5.1 10.4 L-10.45 10.1 -12.3 9.35 -6.2 9.5 Q-5.0 8.8 -2.65 5.9 -0.45 3.1 0.55 2.8 2.65 2.2 4.4 2.85" fill="#ff002d" fill-rule="evenodd" stroke="none"/>
      <path d="M-2.6 -1.8 Q-1.95 -1.8 -0.6 1.1 0.15 2.1 1.35 2.2 L0.15 2.55 Q-1.7 3.35 -3.1 5.6 -6.0 10.35 -11.1 8.95 -13.5 8.3 -10.15 4.35 L-6.2 0.55 -5.4 -0.6 Q-4.3 -1.8 -2.6 -1.8" fill="#ffd700" fill-rule="evenodd" stroke="none"/>
      <path d="M-2.9 4.1 Q-2.35 4.55 -3.15 4.75 -4.35 5.05 -6.45 4.75 -8.25 4.45 -8.55 4.1 -9.25 3.35 -8.15 3.2 -7.0 3.8 -2.9 4.1" fill="#ff9500" fill-rule="evenodd" stroke="none"/>
      <path d="M-4.75 6.2 Q-4.25 6.5 -5.0 6.8 L-7.85 6.55 -10.5 5.9 Q-11.25 5.3 -9.95 5.3 -8.85 5.9 -4.75 6.2" fill="#ff9500" fill-rule="evenodd" stroke="none"/>
      <path d="M-8.4 3.75 Q-9.2 2.95 -8.0 2.85 -6.85 3.45 -2.8 3.75 -2.25 4.2 -2.95 4.35 -4.2 4.65 -6.25 4.35 L-8.4 3.75" fill="#ffffff" fill-rule="evenodd" stroke="none"/>
      <path d="M-4.6 5.85 Q-4.1 6.15 -4.8 6.45 L-7.7 6.2 -10.35 5.5 Q-11.2 4.9 -9.85 4.9 L-4.6 5.85" fill="#ffffff" fill-rule="evenodd" stroke="none"/>
      <path d="M-10.95 11.8 Q-11.5 11.5 -11.25 11.0 -11.05 10.8 -8.55 11.5 L0.0 10.95 Q1.3 11.85 -4.25 12.45 -8.8 12.9 -10.95 11.8" fill="#ffd700" fill-rule="evenodd" stroke="none"/>
      <path d="M-2.7 -1.65 Q-0.45 -1.1 -0.45 1.25 -2.2 -1.1 -3.1 -0.85 -5.7 1.25 -5.9 0.35 L-5.05 -0.8 Q-3.95 -1.95 -2.7 -1.65" fill="#ffffff" fill-rule="evenodd" stroke="none"/>
      <path d="M-12.2 8.4 Q-12.65 8.1 -12.2 7.8 -11.8 7.4 -10.5 7.45 -9.2 7.6 -8.55 8.4 -7.95 9.25 -9.3 9.3 L-12.2 8.4" fill="#ffffff" fill-rule="evenodd" stroke="none"/>
    </g>
  </defs>
</svg>
